X: 62
T: No_55_Song_Used_in_Treatment_of_Sick_(d).krn
N: Derived from No_55_Song_Used_in_Treatment_of_Sick_(d).krn
%%abc-version 2.0
%%abcx-abcm2ps-target-version 5.9.1 (29 Sep 2008)
%%abc-creator hum2abc beta
%%abcx-conversion-date 2019/03/15 08:36:49
%%humdrum-veritas 1836736193
%%humdrum-veritas-data 2406867707
%%linebreak <none>
%%barnumbers 0
L: 1/8
M: 2/4
K: Bb clef=bass
[K:clef=bass][M:2/4]B,3B, | 
B,4 ||  
[M:3/4]CB,C2B,B,/B,/ | 
B,4B,2 | 
F,2F,4 ||  
[M:2/4]G,F,G,2 | 
G,3F, ||  
[M:3/4]G,F,G,2F,F,/F,/ ||  
[M:2/4]F,4 | 
F,3F, | 
F,4 |]  



